X:1
T:Title
%%score ( 1 2 ) ( 3 4 )
L:1/8
Q:1/4=112
M:3/4
K:Eb
V:1 treble nm="Midi_74"
V:2 treble 
V:3 bass nm="Midi_74"
V:4 bass 
V:1
"^St Aëlred (88. 83)""^Fierce raged the tempest o'er the deep""^John Bacchus Dykes\n(1823-76)""^Godfrey Thring\n(1823-1908)" G2 G2 G2 | %1
 G4 G2 | A4 A2 | G6 | c2 e2 d2 | c4 B2 | A4 A2 | G6 || G2 G2 G2 | B4 B2 | c4 B2 | A6 | E6 | F6 | %14
 G6- | G6 |] %16
V:2
 E2 E2 E2 | D4 E2 | F4 F2 | E6 | G2 G2 B2 | A4 G2 | (C2 F2) E2 | D6 || E2 E2 E2 | D4 D2 | C4 _D2 | %11
 C6 | E6 | E6 | E6- | E6 |] %16
V:3
 C2 C2 C2 | =B,4 C2 | C4 C2 | C6 | E2 E2 B,2 | (C2 E2) E2 | (E2 D2) C2 | =B,6 || C2 C2 E,2 | %9
w: ||||Watch did Thine|an\- * xious|ser\- * vants|keep,|But Thou wast|
w: ||||'O save is|in * our|a\- * gon-|y!'|Thy word a-|
w: ||||Sank like a|lit\- * tle|child * to|sleep,|The sul- len|
w: ||||And storm- winds|drift * us|from * the|shore,|Say, lest we|
 F,4 G,2 | A,4 E,2 | E,6 | C6 | C6 | B,6- | B,6 |] %16
w: wrapt in|guile- less|sleep,|Calm|and|still.||
w: bove the|storm rose|high,|'Peace,|be|still.'||
w: bil- lows|ceased to|leap,|At|Thy|will.||
w: sink to|rise no|more,|'Peace,|be|still.'||
V:4
 C,2 (C,D,) (E,F,) | G,4 C,2 | F,2 (F,G, A,B,) | C6 | C2 C2 G,2 | A,4 E,2 | F,4 F,2 | G,6 || %8
w: ~~Fierce raged * the *|tem- pest|o'er the * * *|deep,|||||
w: ~'Save, Lord, * we *|per- ish,'|was their * * *|cry,|||||
w: ~The wild * winds *|hushed, the|an- gry * * *|deep|||||
w: ~So when * our *|life is|cloud- ed * * *|o'er,|||||
 C,2 C,2 C,2 | B,,4 B,,2 | A,,4 A,,2 | A,,6 | A,,6 | A,,6 | [E,,E,]6- | [E,,E,]6 |] %16
w: ||||||||
w: ||||||||
w: ||||||||
w: ||||||||

